packages/symbols/svgs/solid/translation-solid.svg

<svg width="16" height="16" viewBox="0 0 16 16" fill="none" xmlns="http://www.w3.org/2000/svg">
<g clip-path="url(#clip0_1902_3130)">
<path d="M7.548 9.55L8.182 7.745C7.52619 7.54482 6.89671 7.26685 6.307 6.917C6.74654 6.42941 7.11946 5.88567 7.416 5.3C7.72721 4.68891 7.95716 4.03974 8.1 3.369C8.689 3.369 9.079 3.389 9.519 3.429V1.62C9.03748 1.67203 8.55329 1.69541 8.069 1.69H5.687V1.08C5.68665 0.875178 5.70675 0.670832 5.747 0.470001H3.738C3.77922 0.674062 3.79932 0.881823 3.798 1.09V1.69H1.589C1.10504 1.69515 0.621206 1.67177 0.14 1.62V3.429C0.64 3.389 0.979 3.369 1.569 3.369C1.73855 3.96125 1.96982 4.53406 2.259 5.078C2.60815 5.74061 3.0414 6.35536 3.548 6.907C2.45071 7.54688 1.24995 7.98989 0 8.216C0.420415 8.74521 0.744977 9.34391 0.959 9.985C2.3811 9.60505 3.72712 8.98296 4.938 8.146C5.74428 8.72385 6.62146 9.19571 7.548 9.55V9.55ZM3.488 3.369H6.137C5.92419 4.26504 5.495 5.09526 4.887 5.787C4.22732 5.10952 3.74655 4.27857 3.488 3.369V3.369Z" fill="black"/>
<path d="M13.717 16L12.992 13.621H9.349L8.624 16H6.341L9.868 5.965H12.459L16 16H13.717ZM12.486 11.844C11.8193 9.688 11.4423 8.469 11.355 8.187C11.271 7.904 11.21 7.681 11.174 7.517C11.0233 8.09966 10.5927 9.542 9.882 11.844H12.486Z" fill="black"/>
</g>
<defs>
<clipPath id="clip0_1902_3130">
<rect width="16" height="16" fill="white"/>
</clipPath>
</defs>
</svg>

<svg width="16" height="16" viewBox="0 0 16 16" xmlns="http://www.w3.org/2000/svg"><g clip-path="url(#a)"><path d="m7.548 9.55.634-1.805a8.59 8.59 0 0 1-1.875-.828A7.423 7.423 0 0 0 7.416 5.3c.311-.611.541-1.26.684-1.931.589 0 .979.02 1.419.06V1.62c-.482.052-.966.075-1.45.07H5.687v-.61c0-.205.02-.41.06-.61H3.738c.041.204.061.412.06.62v.6H1.589A12.32 12.32 0 0 1 .14 1.62v1.809c.5-.04.839-.06 1.429-.06a8.8 8.8 0 0 0 .69 1.709 8.7 8.7 0 0 0 1.289 1.829A10.892 10.892 0 0 1 0 8.216c.42.53.745 1.128.959 1.769a12.816 12.816 0 0 0 3.979-1.839 11.58 11.58 0 0 0 2.61 1.404Zm-4.06-6.181h2.649a5.635 5.635 0 0 1-1.25 2.418 5.7 5.7 0 0 1-1.399-2.418ZM13.717 16l-.725-2.379H9.349L8.624 16H6.341L9.868 5.965h2.591L16 16h-2.283Zm-1.231-4.156-1.131-3.657a10.295 10.295 0 0 1-.181-.67c-.15.583-.581 2.025-1.292 4.327h2.604Z"/></g><defs><clipPath id="a"><path fill="#fff" d="M0 0h16v16H0z"/></clipPath></defs></svg>
